X:1011
T:Miss Mary Douglas
P:Miss Mary Douglas
C:Wilson's Companion to the Ballroom, 1816
R:Jig (8x48) AABB
B:RSCDS 10-11
Z:Anselm Lingnau <anselm@strathspey.org>
M:6/8
L:1/8
K:Bb
F|"Bb"D>EF F2B|"Eb"GEG "F7"F2E|"Bb"D>EF FBd|"F7"d3 c2E|\
  "Bb"D>EF F2B|"Eb"GEG "F7"F2g|
                               "Bb"fdB "F7"ecA|"Bb"B3 B,2::\
f|"Bb"f>gf b2f|d3 B2 d|"F"c>dc f2c|A3 FGA|
  "Gm"B3 GAB|"F7"c3 ABc|"Bb"def fed|"F7"cBA GFE|\
  "Bb"D>EF F2B|"Eb"GEG "F7"F2E|
                               "Bb"D>EF FBd|"F7"d3 c2E|\
  "Bb"D>EF F2B|"Eb"GEG "F7"F2e|"Bb"fdB "F7"ecA|"Bb"B3 B2:|
